~makeNodes = {
	~s.bind({
		~mainGroup = Group.new;
		~reverbGroup = Group.after(~mainGroup);
		~reverbSynth = Synth.new(
			\reverb,
			[
				\amp, 1,
				\predelay, 0.1,
				\lpf, 4500,
				\mix, 0.35,
				\in, ~bus[\reverb],
				\out, ~out,
			],
			~reverbGroup
		);
	});

	~s.sync;
	"... Nodes Created".postln;
}